dist/svgs/unicons/line/shopping-basket.svg

<svg xmlns="http://www.w3.org/2000/svg" data-name="Layer 1" viewBox="0 0 24 24"><path d="M14 18a1 1 0 001-1v-2a1 1 0 00-2 0v2a1 1 0 001 1zm-4 0a1 1 0 001-1v-2a1 1 0 00-2 0v2a1 1 0 001 1zm9-12h-1.38l-1.73-3.45a1 1 0 10-1.78.9L15.38 6H8.62l1.27-2.55a1 1 0 00-1.78-.9L6.38 6H5a3 3 0 00-.92 5.84l.74 7.46a3 3 0 003 2.7h8.38a3 3 0 003-2.7l.74-7.46A3 3 0 0019 6zm-1.81 13.1a1 1 0 01-1 .9H7.81a1 1 0 01-1-.9L6.1 12h11.8zM19 10H5a1 1 0 010-2h14a1 1 0 010 2z"/></svg>

<svg xmlns="http://www.w3.org/2000/svg" data-name="Layer 1" viewBox="0 0 24 24"><path d="M14,18a1,1,0,0,0,1-1V15a1,1,0,0,0-2,0v2A1,1,0,0,0,14,18Zm-4,0a1,1,0,0,0,1-1V15a1,1,0,0,0-2,0v2A1,1,0,0,0,10,18ZM19,6H17.62L15.89,2.55a1,1,0,1,0-1.78.9L15.38,6H8.62L9.89,3.45a1,1,0,0,0-1.78-.9L6.38,6H5a3,3,0,0,0-.92,5.84l.74,7.46a3,3,0,0,0,3,2.7h8.38a3,3,0,0,0,3-2.7l.74-7.46A3,3,0,0,0,19,6ZM17.19,19.1a1,1,0,0,1-1,.9H7.81a1,1,0,0,1-1-.9L6.1,12H17.9ZM19,10H5A1,1,0,0,1,5,8H19a1,1,0,0,1,0,2Z"/></svg>
